X: 108
T: Quick March of the South Fencibles
%R: march, reel
B: Stewart "A Select Collection of Airs, Jigs, Marches and Reels", ca.1784, p.52 #108
F: http://imslp.org/wiki/A_Select_Collection_of_Airs,_Jigs,_Marches_and_Reels_%28Various%29
Z: 2017 John Chambers <jc:trillian.mit.edu>
M: 2/4
L: 1/16
K: D
|:\
d4 (de).f.d | e2c2 A4 | B4 (Bc).d.B | A2G2 F4 |\
G2A2B2c2 | d2e2f2g2 | f2e2d2c2 | d4 d4 :|
|:\
f2fg a2f2 | e2ef g4 | d2de f2d2 | (cd).e.c A4 |\
d2de c2cd | B2Bc A4 | B2g2f2e2 | d4 d4 :|

%%sep 1 1 500
%%sep 1 1 500

